teeny/solid/wallet-alt.svg

<svg width="15" height="15" viewBox="0 0 15 15" fill="none" xmlns="http://www.w3.org/2000/svg">
<path fill-rule="evenodd" clip-rule="evenodd" d="M14 12.5L14 10H14.4307C14.7451 10 15 9.74511 15 9.43069V5.56931C15 5.25489 14.7451 5 14.4307 5H14V2.5C14 1.67157 13.3284 1 12.5 1H1.5C0.671574 1 0 1.67157 0 2.5V12.5C0 13.3284 0.671571 14 1.5 14H12.5C13.3284 14 14 13.3284 14 12.5ZM14 6V9L9.5 9C8.67157 9 8 8.32843 8 7.5C8 6.67157 8.67157 6 9.5 6H14Z" fill="black"/>
</svg>

<svg viewBox="0 0 15 15" xmlns="http://www.w3.org/2000/svg"><path fill-rule="evenodd" d="M14 12.5V10h.43c.31 0 .56-.26.56-.57V5.56c0-.32-.26-.57-.57-.57h-.44v-2.5c0-.83-.68-1.5-1.5-1.5h-11c-.83 0-1.5.67-1.5 1.5v10c0 .82.67 1.5 1.5 1.5h11c.82 0 1.5-.68 1.5-1.5ZM14 6v3H9.5C8.67 9 8 8.32 8 7.5 8 6.67 8.67 6 9.5 6H14Z"/></svg>
